!!!!SEGMENT: pl-cz--ii-15--002_szlagorski-walenty--mazur-dublet.krn
!!!cenid: 18xx:1152
!!!COM: Szlagórski, Walenty
!!!COM-rismid: pe30111815
!!!CDT: 1801-1863/07/16
!!!CNT: Polish
!!!OTL: Mazur
!!!PDT:
!!!AGN: Secular; Mazurka
!!!SMS-siglum: PL-CZ
!!!SMS-shelfmark: II-15
!!!SMS-shelfwork: 002 W
!!!SMS-variant:
!!!SMS-altvar:
!!!NIFC-rismid: 300001523
!!!URL-scan: http://repozytorium.nifc.pl/skany/pl-cz-nut--ii-15
!!!ONB-nifc: UWAGA: części: 1. Mazur (Morawski), 2. Mazur (Szlagórski), 3. Walc 1, 4. Walc 2, 5. Walc 3, 6. Walc 4, 7. Walc 5, 8. Mazur (Studziński), 9. Kotylion (Szlagórski), 10. Gallop (Szlagórski), 11. Mazur (Smacierzyński). UWAGA: dalsza część partii Basso z tyłu okładki
**kern	**dynam	**kern	**dynam	**kern	**dynam	**kern	**dynam	**kern	**dynam	**kern	**dynam	**kern	**dynam	**kern	**dynam
*group3	*	*group3	*	*group3	*	*group2	*	*group2	*	*group1	*	*group1	*	*group1	*
*part8	*part8	*part7	*part7	*part6	*part6	*part5	*part5	*part4	*part4	*part3	*part3	*part2	*part2	*part1	*part1
*staff8	*	*staff7	*	*staff6	*	*staff5	*	*staff4	*	*staff3	*	*staff2	*	*staff1	*
*I"Baſso	*	*I"Violino 2do	*	*I"Violino Imo	*	*I"Clarino in G.	*	*I"Corno 1mo in D.	*	*I"Clarinetto 2do in C	*	*I"Clarinetto 1mo in C.	*	*I"Flauto Primo	*
*I'b	*	*I'vl 2	*	*I'vl 1	*	*I'clno in G	*	*I'cor 1 in D	*	*I'cl 2 in C	*	*I'cl 1 in C	*	*I'fl 1	*
*clefF4	*	*clefG2	*	*clefG2	*	*clefG2	*	*clefG2	*	*clefG2	*	*clefG2	*	*clefG2	*
*>[A,A,B,B,C,C]	*	*>[A,A,B,B,C,C]	*	*>[A,A,B,B,C,C]	*	*>[A,A,B,B,C,C]	*	*>[A,A,B,B,C,C]	*	*>[A,A,B,B,C,C]	*	*>[A,A,B,B,C,C]	*	*>[A,A,B,B,C,C]	*
*>A	*	*>A	*	*>A	*	*>A	*	*>A	*	*>A	*	*>A	*	*>A	*
*	*	*	*	*	*	*ITrd-1c-2	*	*ITrd6c10	*	*	*	*	*	*	*
*k[f#c#]	*	*k[f#c#]	*	*k[f#c#]	*	*k[f#c#]	*	*k[f#c#]	*	*k[f#c#]	*	*k[f#c#]	*	*k[f#c#]	*
*D:	*	*D:	*	*D:	*	*D:	*	*D:	*	*D:	*	*D:	*	*D:	*
*M3/8	*	*M3/8	*	*M3/8	*	*M3/8	*	*M3/8	*	*M3/8	*	*M3/8	*	*M3/8	*
=1	=1	=1	=1	=1	=1	=1	=1	=1	=1	=1	=1	=1	=1	=1	=1
!	!	!	!	!	!	!	!	!	!	!	!	!	!	!LO:TX:a:t=4	!
4D\	p	8r	.	8a\L	.	8r	p	8r	p	8r	p	8a\L	.	4.r	.
!	!	!	!	!LO:SIC:s=16.dd	!	!	!	!	!	!	!	!	!	!	!
.	.	8aL 8f#/	.	16dd\L	.	8d/L	.	8f#\L	.	8f#/L	.	16.dd\L	.	.	.
.	.	.	.	32ryy	.	.	.	.	.	.	.	.	.	.	.
.	.	.	.	32ee\JJk	.	.	.	.	.	.	.	32ee\JJk	.	.	.
8r	.	8aJ 8f#/	.	8ff#^<\	.	8d/J	.	8f#\J	.	8a/J	.	8ff#\	.	.	.
=2	=2	=2	=2	=2	=2	=2	=2	=2	=2	=2	=2	=2	=2	=2	=2
4D\	.	8r	.	8dd\L	.	8r	.	8r	.	8r	.	8dd\L	.	4.r	.
.	.	8aL 8f#/	.	16.ff#\L	.	8d/L	.	8f#\L	.	8a\L	.	16.ff#\L	.	.	.
.	.	.	.	32gg\JJk	.	.	.	.	.	.	.	32gg\JJk	.	.	.
8r	.	8aJ 8f#/	.	8aa^<\	.	8d/J	.	8f#\J	.	8dd\J	.	8aa\	.	.	.
=3	=3	=3	=3	=3	=3	=3	=3	=3	=3	=3	=3	=3	=3	=3	=3
4A 4AA\	.	8r	.	8aa^<\L	.	8r	.	8r	.	8r	.	8aa\L	.	4.r	.
.	.	8aL 8g/	.	16.gg\L	.	8A/L	.	8e\L	.	8cc#\L	.	16.gg\L	.	.	.
.	.	.	.	32ee\JJk	.	.	.	.	.	.	.	32ee\JJk	.	.	.
8r	.	8aJ 8g/	.	8cc#\	.	8A/J	.	8e\J	.	8g\J	.	8cc#\	.	.	.
=4	=4	=4	=4	=4	=4	=4	=4	=4	=4	=4	=4	=4	=4	=4	=4
.	.	.	.	8qdd/	.	.	.	.	.	.	.	.	.	.	.
4D\	.	8r	.	8ddd\L	.	8r	.	8r	.	8r	.	8ddd\L	.	4.r	.
.	.	8aL 8f#/	.	16.aa\L	.	8d/L	.	8f#\L	.	8f#/L	.	16.aa\L	.	.	.
.	.	.	.	32ff#\JJk	.	.	.	.	.	.	.	32ff#\JJk	.	.	.
8r	.	8aJ 8f#/	.	8dd\	ff	8d/J	.	8f#\J	.	8a/J	.	8dd\	.	.	.
=5	=5	=5	=5	=5	=5	=5	=5	=5	=5	=5	=5	=5	=5	=5	=5
*	*	*tremolo	*	*	*	*	*	*	*	*	*	*	*	*	*
*	*	*	*	*	*	*tremolo	*	*	*	*	*	*	*	*	*
*	*	*	*	*	*	*	*	*tremolo	*	*	*	*	*	*	*
!	!	!	!	!LO:LB:g=original	!	!	!	!	!	!	!	!	!	!	!
8D\L	ff	8a 8f#/L	ff	16.ddLL 16.f#\	f	8d/L	ff	8f#\L	f	16.f#/LL	f	16.dd\LL	f	16.dd\LL	f
.	.	.	.	32eeJJk 32cc#\	.	.	.	.	.	32cc#/JJk	.	32ee\K	.	32ee\K	.
8d\	.	8a 8f#/	.	16.ff#LL 16.dd\	.	8d/	.	8f#\	.	16.dd\LL	.	16.ff#\	.	16.ff#\	.
.	.	.	.	32ggJJk 32ee\	.	.	.	.	.	32ee\K	.	32gg\K	.	32gg\K	.
8d\J	.	8a 8f#/J	.	16.aaLL 16.ff#\	.	8d/J	.	8f#\J	.	16.ff#\	.	16.aa\	.	16.aa\	.
.	.	.	.	32bbJJk 32gg\	.	.	.	.	.	32gg\JJk	.	32bb\JJk	.	32bb\JJk	.
*	*	*Xtremolo	*	*	*	*	*	*	*	*	*	*	*	*	*
=6	=6	=6	=6	=6	=6	=6	=6	=6	=6	=6	=6	=6	=6	=6	=6
!	!	!	!	!	!	!	!	!	!	!	!	!LO:LB:g=original	!	!	!
8D\	.	8a 8f#/	.	32aaKLL 32cc#\	.	8d/	.	8f#\	.	8ff#\	.	8aa\	.	32aa\KLL	.
.	.	.	.	16.fff#\JJ	.	.	.	.	.	.	.	.	.	16.fff#\JJ	.
4d 4D^<\	.	4a 4f#^/	.	4ddd\	.	4dd^<\	.	4f#\	.	4ff#^<\	.	4aa^<\	.	4ddd\	.
=7	=7	=7	=7	=7	=7	=7	=7	=7	=7	=7	=7	=7	=7	=7	=7
*	*	*	*	*	*	*	*	*	*	*tremolo	*	*	*	*	*
8A\L	.	8r	.	16.bb\LL	.	8a/L	.	8e\L	.	8g/L	.	8cc#\L	.	16.bb\LL	.
.	.	.	.	32aa\JJk	.	.	.	.	.	.	.	.	.	32aa\K	.
8A\	.	8aL 8g/	.	16.gg#X\LL	.	8a/	.	8e\	.	8g/	.	8cc#\	.	16.gg#X\	.
.	.	.	.	32aa\JJk	.	.	.	.	.	.	.	.	.	32aa\K	.
8A\J	.	8aJ 8g/	.	16.ee\LL	.	8a/J	.	8e\J	.	8g/J	.	8cc#\J	.	16.ee\	.
.	.	.	.	32ggn\JJk	.	.	.	.	.	.	.	.	.	32ggn\JJk	.
=8	=8	=8	=8	=8	=8	=8	=8	=8	=8	=8	=8	=8	=8	=8	=8
!	!	!LO:LB:g=original	!	!	!	!	!	!	!	!	!	!	!	!LO:LB:g=original	!
8d 8D\	.	8a 8f#/	.	16.ff#\LL	.	8dd\	.	8d\	.	8f#/	.	8dd\	.	16.ff#\LL	.
.	.	.	.	32cc#\JJk	.	.	.	.	.	.	.	.	.	32ccc#\JJk	.
*	*	*	*	*	*	*	*	*Xtremolo	*	*	*	*	*	*	*
4D\	.	4a 4f#/	.	4dd\	.	4d^/	.	4d\	.	4f#/	.	4dd\	.	4ddd\	.
=9:|!|:	=9:|!|:	=9:|!|:	=9:|!|:	=9:|!|:	=9:|!|:	=9:|!|:	=9:|!|:	=9:|!|:	=9:|!|:	=9:|!|:	=9:|!|:	=9:|!|:	=9:|!|:	=9:|!|:	=9:|!|:
*>B	*	*>B	*	*>B	*	*>B	*	*>B	*	*>B	*	*>B	*	*>B	*
*	*	*	*	*^	*	*	*	*	*	*	*	*	*	*	*
*	*	*	*	*Xtuplet	*	*	*	*	*	*	*	*	*Xtuplet	*	*	*
!LO:LB:g=original	!	!	!	!LO:TX:t=P:problem:triola nieoznaczona	!	!	!LO:TX:a:t=4	!	!LO:TX:a:t=2	!	!LO:TX:a:t=4	!	!	!	!LO:TUP:a:problem:brak klamry:global	!
4A\	p	8r	p	24ee/LL	8r	p	4.r	.	4.r	.	4.r	.	24ee\LL	.	24eee\LL	.
.	.	.	.	24ff#/	.	.	.	.	.	.	.	.	24ff#\	.	24fff#\	.
.	.	.	.	24ee/JJ	.	.	.	.	.	.	.	.	24ee\JJ	.	24eee\JJ	.
.	.	8eL 8c#/	.	8cc#/L	8eL 8c#\	.	.	.	.	.	.	.	8cc#\L	.	8ccc#\L	.
8r	.	8eJ 8c#/	.	8ee/J	8eJ 8c#\	.	.	.	.	.	.	.	8ee\J	.	8eee\J	.
=10	=10	=10	=10	=10	=10	=10	=10	=10	=10	=10	=10	=10	=10	=10	=10	=10
!	!	!	!	!LO:LB:g=original	!	!	!	!	!	!	!	!	!	!	!	!
4A 4AA\	.	8r	.	16.aa/LL	8r	.	4.r	.	4.r	.	4.r	.	16.aa\LL	.	16.aaa\LL	.
.	.	.	.	32cc#/JJk	.	.	.	.	.	.	.	.	32cc#\JJk	.	32ccc#\JJk	.
!	!	!	!	!LO:SIC:s=8.ee	!	!	!	!	!	!	!	!	!LO:SIC:s=8.ee	!	!	!
.	.	8eL 8c#/	.	8ee/L	8a\L	.	.	.	.	.	.	.	8ee\L	.	8.eee\L	.
8r	.	8eJ 8c#/	.	16ryy	8a\J	.	.	.	.	.	.	.	16ryy	.	.	.
.	.	.	.	16a/Jk	.	.	.	.	.	.	.	.	16a\Jk	.	16aa\Jk	.
=11	=11	=11	=11	=11	=11	=11	=11	=11	=11	=11	=11	=11	=11	=11	=11	=11
4E\	.	8r	.	8ee/	8r	.	4.r	.	8r	.	4.r	.	8ee^<\L	.	8eee\L	.
.	.	8dL 8B/	.	16.dd/LL	8g#X\L	.	.	.	8e\L	.	.	.	16.dd\L	.	16.ddd\L	.
.	.	.	.	32b/JJk	.	.	.	.	.	.	.	.	32b\JJk	.	32bb\JJk	.
8r	.	8dJ 8B/	.	8g#X/	8g#\J	.	.	.	8e\J	.	.	.	8g#X/	.	8gg#X\	.
=12	=12	=12	=12	=12	=12	=12	=12	=12	=12	=12	=12	=12	=12	=12	=12	=12
4A\	.	8r	.	8ff#/L	8r	.	4.r	.	8r	.	4.r	.	8ff#^<\L	.	8fff#\L	.
.	.	8eL 8c#/	.	16.ee/L	8a\L	.	.	.	8e\L	.	.	.	16.ee\L	.	16.eee\L	.
.	.	.	.	32cc#/JJk	.	.	.	.	.	.	.	.	32cc#\JJk	.	32ccc#\JJk	.
8r	.	8eJ 8c#/	.	8a/	8a\J	.	.	.	8e\J	.	.	.	8a\	.	8aa\	.
*	*	*	*	*v	*v	*	*	*	*	*	*	*	*	*	*	*
=13	=13	=13	=13	=13	=13	=13	=13	=13	=13	=13	=13	=13	=13	=13	=13
*	*	*tremolo	*	*	*	*	*	*tremolo	*	*	*	*	*	*	*
!LO:TX:t=P:problem:mixed beam	!	!	!	!	!	!	!	!	!	!	!	!	!	!LO:TX:a:t=8	!
!	!	!	!	!	!	!	!	!LO:LB:g=original	!	!	!LO:LB:g=original	!LO:LB:g=original	!	!LO:LB:g=original	!
8AA/L	.	8e 8c#/L	f	16.a\LL	ff	8a/L	.	8e\L	.	16.a/LL	.	16.a\LL	.	4.r	.
.	.	.	.	32b\K	.	.	.	.	.	32g#X/JJk	.	32b\K	.	.	.
8A\	.	8e 8c#/	.	16.cc#\	.	8a/	.	8e\	.	16.a\LL	.	16.cc#\	.	.	.
.	.	.	.	32dd\K	.	.	.	.	.	32b\K	.	32dd\K	.	.	.
8A\J	.	8e 8c#/J	.	16.ee\	.	8a/J	.	8e\J	.	16.cc#\	.	16.ee\	.	.	.
.	.	.	.	32ff#\JJk	.	.	.	.	.	32dd\JJk	.	32ff#\JJk	.	.	.
=14	=14	=14	=14	=14	=14	=14	=14	=14	=14	=14	=14	=14	=14	=14	=14
8AA/	.	8e 8c#/L	.	16.ee\LL	.	8a/	.	8e\	.	8cc#\	.	8ee\	.	4.r	.
.	.	.	.	32aa\JJk	.	.	.	.	.	.	.	.	.	.	.
4A^<\	.	8e 8c#/	.	8.ccc#\L	.	4a^/	.	4e\	.	4cc#\	.	4ee\	.	.	.
.	.	8e 8c#/J	.	.	.	.	.	.	.	.	.	.	.	.	.
.	.	.	.	16aa\Jk	.	.	.	.	.	.	.	.	.	.	.
=15	=15	=15	=15	=15	=15	=15	=15	=15	=15	=15	=15	=15	=15	=15	=15
!	!	!	!	!LO:LB:g=original	!	!LO:LB:g=original	!	!	!	!	!	!	!	!	!
8E\L	.	4.e 4.d/	.	16.ccc#\LL	.	8ee\L	.	8e\L	.	8dd\	.	8gg#X\	.	4.r	.
.	.	.	.	32bb\JJk	.	.	.	.	.	.	.	.	.	.	.
8E\	.	.	.	16.gg#X\LL	.	8ee\	.	8e\	.	4dd\	.	16.gg#\LL	.	.	.
.	.	.	.	32ee\K	.	.	.	.	.	.	.	32ee\K	.	.	.
8E\J	.	.	.	16.ff#\	.	8ee\J	.	8e\J	.	.	.	16.ff#\	.	.	.
.	.	.	.	32gg#\JJk	.	.	.	.	.	.	.	32gg#\JJk	.	.	.
*	*	*	*	*	*	*Xtremolo	*	*Xtremolo	*	*	*	*	*	*	*
=16	=16	=16	=16	=16	=16	=16	=16	=16	=16	=16	=16	=16	=16	=16	=16
!LO:TX:t=P:problem:mixed beam	!	!	!	!	!	!	!	!	!	!	!	!	!	!	!
8A\L	.	8e 8c#/L	.	16.aa\LL	.	8a/	.	8e\	.	8cc#\	.	16.aa\LL	.	4.r	.
.	.	.	.	32gg#X\JJk	.	.	.	.	.	.	.	32gg#X\K	.	.	.
8AA/J	.	8e 8c#/	.	16.bb\LL	.	4a^/	.	4e\	.	4cc#\	.	16.bb\	.	.	.
.	.	.	.	32aa\K	.	.	.	.	.	.	.	32aa\K	.	.	.
8r	.	8e 8c#/J	.	16.ggn\	.	.	.	.	.	.	.	16.ggn\	.	.	.
.	.	.	.	32ee\JJk	.	.	.	.	.	.	.	32ee\JJk	.	.	.
*	*	*Xtremolo	*	*	*	*	*	*	*	*	*	*	*	*	*
=17	=17	=17	=17	=17	=17	=17	=17	=17	=17	=17	=17	=17	=17	=17	=17
!	!	!	!	!	!	!	!	!	!	!	!	!LO:TX:t=P:problem:pominięty takt	!	!	!
4D\	.	8r	.	8a\L	p	8r	.	8r	.	8r	.	4.ryy	.	4.r	.
.	.	8aL 8f#/	.	16.dd\L	.	8d/L	.	8f#\L	.	8f#/L	.	.	.	.	.
.	.	.	.	32ee\JJk	.	.	.	.	.	.	.	.	.	.	.
8r	.	8aJ 8f#/	.	8ff#^<\	.	8d/J	.	8f#\J	.	8a/J	.	.	.	.	.
=18	=18	=18	=18	=18	=18	=18	=18	=18	=18	=18	=18	=18	=18	=18	=18
!	!	!LO:LB:g=original	!	!	!	!	!	!	!	!	!	!	!	!	!
4D\	.	8r	.	8dd\L	.	8r	.	8r	.	8r	.	8dd\L	.	4.r	.
.	.	8aL 8f#/	.	16.ff#\L	.	8d/L	.	8f#\L	.	8a\L	.	16.ff#\L	.	.	.
.	.	.	.	32gg\JJk	.	.	.	.	.	.	.	32gg\JJk	.	.	.
8r	.	8aJ 8f#/	.	8aa^<\	.	8d/J	.	8f#\J	.	8dd\J	.	8aa\	.	.	.
=19	=19	=19	=19	=19	=19	=19	=19	=19	=19	=19	=19	=19	=19	=19	=19
4A\	.	8r	.	8.aa^<\L	.	8r	.	8r	.	8r	.	8aa\L	.	4.r	.
.	.	8aL 8g/	.	.	.	8a/L	.	8e\L	.	8cc#\L	.	16.gg\L	.	.	.
.	.	.	.	32gg\LL	.	.	.	.	.	.	.	.	.	.	.
.	.	.	.	32ee\JJJ	.	.	.	.	.	.	.	32ee\JJk	.	.	.
8r	.	8aJ 8g/	.	8cc#\	.	8a/J	.	8e\J	.	8g\J	.	8cc#\	.	.	.
=20	=20	=20	=20	=20	=20	=20	=20	=20	=20	=20	=20	=20	=20	=20	=20
!	!	!	!	!	!	!	!	!	!	!	!	!LO:LB:g=original	!	!	!
.	.	.	.	8qdd/	.	.	.	.	.	.	.	8qdd/	.	.	.
4D\	.	8r	.	8ddd\L	.	8r	.	8r	.	8r	.	8ddd\L	.	4.r	.
.	.	8aL 8f#/	.	16.aa\L	.	8d/L	.	8f#\L	.	8f#/L	.	16.aa\L	.	.	.
.	.	.	.	32ff#\JJk	.	.	.	.	.	.	.	32ff#\JJk	.	.	.
8r	.	8aJ 8f#/	.	8dd\	.	8d/J	.	8f#\J	.	8a/J	.	8dd\	.	.	.
=21	=21	=21	=21	=21	=21	=21	=21	=21	=21	=21	=21	=21	=21	=21	=21
*	*	*tremolo	*	*	*	*tremolo	*	*tremolo	*	*	*	*	*	*	*
!LO:LB:g=original	!	!	!	!LO:LB:g=original	!	!	!	!	!	!	!	!	!	!	!
8D\L	ff	8a 8f#/L	ff	16.ddLL 16.f#\	ff	8d/L	ff	8f#\L	ff	16.f#/LL	f	16.dd\LL	.	16.dd\LL	ff
.	.	.	.	32eeJJk 32cc#\	.	.	.	.	.	32cc#/JJk	.	32ee\K	.	32ee\K	.
8d\	.	8a 8f#/	.	16.ff#LL 16.dd\	.	8d/	.	8f#\	.	16.dd\LL	.	16.ff#\	.	16.ff#\	.
.	.	.	.	32ggJJk 32ee\	.	.	.	.	.	32ee\K	.	32gg\K	.	32gg\K	.
8d\J	.	8a 8f#/J	.	16.aaLL 16.ff#\	.	8d/J	.	8f#\J	.	16.ff#\	.	16.aa\	.	16.aa\	.
.	.	.	.	32bbJJk 32gg\	.	.	.	.	.	32gg\JJk	.	32bb\JJk	.	32bb\JJk	.
*	*	*Xtremolo	*	*	*	*	*	*	*	*	*	*	*	*	*
=22	=22	=22	=22	=22	=22	=22	=22	=22	=22	=22	=22	=22	=22	=22	=22
!	!	!	!	!	!	!	!	!	!	!LO:LB:g=original	!	!	!	!LO:SIC:s=16.aa	!
8D\	.	8a 8f#/	.	16.aa\LL	.	8d/	.	8f#\	.	8ff#\	.	8aa\	.	16aaLL 16cc#\	.
.	.	.	.	.	.	.	.	.	.	.	.	.	.	32ryy	.
.	.	.	.	32fff#\JJk	.	.	.	.	.	.	.	.	.	32fff#\JJk	.
4d 4D^<\	.	4a 4f#^/	.	4ddd^<\	.	4dd^<\	.	4f#\	.	4ff#\	.	4aa\	.	4ddd^<\	.
=23	=23	=23	=23	=23	=23	=23	=23	=23	=23	=23	=23	=23	=23	=23	=23
*	*	*	*	*	*	*	*	*	*	*	*	*tremolo	*	*	*
8A\L	.	8r	.	16.bb\LL	.	8a/L	.	8e\L	.	8g/L	.	8cc#\L	.	16.bb\LL	.
.	.	.	.	32aa\JJk	.	.	.	.	.	.	.	.	.	32aa\K	.
8A\	.	8aL 8g/	.	16.gg#X\LL	.	8a/	.	8e\	.	8g/	.	8cc#\	.	16.gg#X\	.
.	.	.	.	32aa\JJk	.	.	.	.	.	.	.	.	.	32aa\K	.
8A\J	.	8aJ 8g/	.	16.ee\LL	.	8a/J	.	8e\J	.	8g/J	.	8cc#\J	.	16.ee\	.
.	.	.	.	32ggn\JJk	.	.	.	.	.	.	.	.	.	32ggn\JJk	.
*	*	*	*	*	*	*	*	*	*	*	*	*Xtremolo	*	*	*
*	*	*	*	*	*	*	*	*	*	*Xtremolo	*	*	*	*	*
*	*	*	*	*	*	*	*	*Xtremolo	*	*	*	*	*	*	*
*	*	*	*	*	*	*Xtremolo	*	*	*	*	*	*	*	*	*
=24	=24	=24	=24	=24	=24	=24	=24	=24	=24	=24	=24	=24	=24	=24	=24
8d\	.	8a 8f#/	.	16.ff#\LL	.	8dd\	.	8f#\	.	8f#/	.	8dd\	.	16.ff#\LL	.
.	.	.	.	32cc#\JJk	.	.	.	.	.	.	.	.	.	32ccc#\JJk	.
4D^/	.	4a 4f#^/	.	4dd\	.	4d/	.	4d\	.	4f#/	.	4dd\	.	4ddd\	.
*	*	*	*	*	*	*	*	*	*	*	*	*	*	*kcancel	*
=25:|!|:	=25:|!|:	=25:|!|:	=25:|!|:	=25:|!|:	=25:|!|:	=25:|!|:	=25:|!|:	=25:|!|:	=25:|!|:	=25:|!|:	=25:|!|:	=25:|!|:	=25:|!|:	=25:|!|:	=25:|!|:
*>C	*	*>C	*	*>C	*	*>C	*	*>C	*	*>C	*	*>C	*	*>C	*
*k[f#]	*	*k[f#]	*	*k[f#]	*	*k[f#c#]	*	*	*	*k[f#c#]	*	*k[f#]	*	*k[f#]	*
*	*	*	*	*^	*	*	*	*	*	*	*	*	*	*	*
!	!	!	!	!LO:TX:a:i:t=Flauto	!	!	!LO:TX:a:t=8	!	!LO:TX:a:t=8	!	!LO:TX:a:t=8	!	!LO:TX:t=P:problem:akcydencje w odwróconej kolejności	!	!LO:TX:t=P:problem:wyłącznie ccn	!
!LO:TX:t=P:problem:znaki w odwrotnej kolejności	!	!LO:TX:t=P:problem:znaki w odwrotnej kolejności	!	!LO:TX:t=P:problem:znaki w odwrotnej kolejności	!	!	!	!	!	!	!	!	!	!	!	!
4G\	p	8r	p	8.dd/L	8r	.	4.r	.	4.r	.	4.r	.	8.dd\L	.	8.ddd\L	.
.	.	8dL 8B/	.	.	8g\L	.	.	.	.	.	.	.	.	.	.	.
.	.	.	.	16ee/Jk	.	.	.	.	.	.	.	.	16ee\L	.	16eee\Jk	.
8r	.	8dJ 8B/	.	16dd/LL	8g\J	.	.	.	.	.	.	.	16dd\	.	16ddd\LL	.
.	.	.	.	16b/JJ	.	.	.	.	.	.	.	.	16cc\JJ	.	16bb\JJ	.
=26	=26	=26	=26	=26	=26	=26	=26	=26	=26	=26	=26	=26	=26	=26	=26	=26
*	*	*	*	*	*	*	*	*	*	*	*	*	*tuplet	*	*	*
!	!	!	!	!	!	!	!	!	!	!	!	!	!LO:TX:t=P:problem:numer	!	!	!
!	!	!	!	!	!	!	!	!	!	!	!	!	!LO:TUP:a	!	!LO:LB:g=original	!
!	!	!	!	!	!	!	!	!	!	!	!	!	!LO:LB:g=original	!	!LO:TUP:a	!
4C/	.	8r	.	24a/LL	8r	.	4.r	.	4.r	.	4.r	.	24a\LL	.	24aa\LL	.
.	.	.	.	24b/	.	.	.	.	.	.	.	.	24b\	.	24bb\	.
.	.	.	.	24cc/JJ	.	.	.	.	.	.	.	.	24cc\JJ	.	24ccc\JJ	.
.	.	8eL 8c/	.	8e/L	8a\L	.	.	.	.	.	.	.	8e/L	.	8ee\L	.
8r	.	8eJ 8c/	.	8a/J	8a\J	.	.	.	.	.	.	.	8a/J	.	8aa\J	.
=27	=27	=27	=27	=27	=27	=27	=27	=27	=27	=27	=27	=27	=27	=27	=27	=27
*	*	*	*	*tuplet	*	*	*	*	*	*	*	*	*	*	*	*
!	!	!	!	!LO:LB:g=original	!	!	!	!	!	!	!	!	!LO:TX:t=P:problem:numer	!	!	!
!	!	!LO:LB:g=original	!	!	!	!	!	!	!	!	!	!	!LO:TUP:a	!	!LO:TUP:a	!
4D\	.	8r	.	24a/LL	8r	.	4.r	.	4.r	.	4.r	.	24a\LL	.	24aa\LL	.
.	.	.	.	24b/	.	.	.	.	.	.	.	.	24b\	.	24bb\	.
.	.	.	.	24a/JJ	.	.	.	.	.	.	.	.	24a\JJ	.	24aa\JJ	.
!	!	!	!	!	!	!	!	!	!	!	!	!	!	!	!LO:SIC:s=8ff#	!
.	.	8dL 8c/	.	8f#/L	8f#\L	.	.	.	.	.	.	.	8f#/L	.	8ff#\L	.
8r	.	8dJ 8c/	.	8d/J	8f#\J	.	.	.	.	.	.	.	8d/J	.	8dd\J	.
=28	=28	=28	=28	=28	=28	=28	=28	=28	=28	=28	=28	=28	=28	=28	=28	=28
4G\	.	8r	.	4dd/	8r	.	4.r	.	4.r	.	4.r	.	4dd\	.	4ddd^\	.
.	.	8dL 8B/	.	.	8g\L	.	.	.	.	.	.	.	.	.	.	.
8r	.	8dJ 8B/	.	8b/	8g\J	.	.	.	.	.	.	.	8b\	.	8bb\	.
=29	=29	=29	=29	=29	=29	=29	=29	=29	=29	=29	=29	=29	=29	=29	=29	=29
4G\	.	8r	.	8.dd/L	8r	.	4.r	.	4.r	.	4.r	.	8.dd\L	.	8.ddd\L	.
.	.	8dL 8B/	.	.	8g\L	.	.	.	.	.	.	.	.	.	.	.
.	.	.	.	16gg/Jk	.	.	.	.	.	.	.	.	16gg\L	.	16ggg\Jk	.
8r	.	8dJ 8B/	.	16dd/LL	8g\J	.	.	.	.	.	.	.	16dd\	.	16ddd\LL	.
.	.	.	.	16b/JJ	.	.	.	.	.	.	.	.	16b\JJ	.	16bb\JJ	.
=30	=30	=30	=30	=30	=30	=30	=30	=30	=30	=30	=30	=30	=30	=30	=30	=30
!	!	!	!	!	!	!	!	!	!	!	!	!	!LO:TX:t=P:problem:numer	!	!	!
!	!	!	!	!	!	!	!	!	!	!	!	!	!LO:TUP:a	!	!LO:TUP:a	!
4C/	.	8r	.	24a/LL	8r	.	4.r	.	4.r	.	4.r	.	24a\LL	.	24aa\LL	.
.	.	.	.	24b/	.	.	.	.	.	.	.	.	24b\	.	24bb\	.
.	.	.	.	24cc/JJ	.	.	.	.	.	.	.	.	24cc\JJ	.	24ccc\JJ	.
.	.	8eL 8c/	.	8e/L	8a\L	.	.	.	.	.	.	.	8e/L	.	8ee\L	.
8r	.	8eJ 8c/	.	8a/J	8a\J	.	.	.	.	.	.	.	8a/J	.	8aa\J	.
=31	=31	=31	=31	=31	=31	=31	=31	=31	=31	=31	=31	=31	=31	=31	=31	=31
4D\	.	8r	.	16.a/LL	8r	.	4.r	.	4.r	.	4.r	.	16.a/LL	.	16.aa\LL	.
.	.	.	.	32b/JJk	.	.	.	.	.	.	.	.	32b/K	.	32bb\K	.
.	.	8dL 8c/	.	16.a/LL	8f#\L	.	.	.	.	.	.	.	16.a/	.	16.aa\	.
!	!	!	!	!	!	!	!	!	!	!	!	!	!	!	!LO:SIC:s=32ff#	!
.	.	.	.	32f#/JJk	.	.	.	.	.	.	.	.	32f#/JJk	.	32ff#\JJk	.
!	!	!	!	!	!	!	!	!	!	!	!	!	!LO:TX:t=P:problem:mixed beam	!	!	!
8r	.	8dJ 8c/	.	16.d/LL	8f#\J	.	.	.	.	.	.	.	16.d/LL	.	16.dd\LL	.
.	.	.	.	32dd/JJk	.	.	.	.	.	.	.	.	32dd\JJk	.	32ddd\JJk	.
=32	=32	=32	=32	=32	=32	=32	=32	=32	=32	=32	=32	=32	=32	=32	=32	=32
!	!	!	!	!	!	!	!	!	!	!	!	!	!LO:N:vis=8.	!	!LO:SIC:s=16.bb	!
!	!	!	!	!	!	!	!	!	!	!	!	!	!	!	!LO:N:vis=16	!
8G\	.	8d 8B/	.	16.b/LL	8f#\	.	4.r	.	4.r	.	4.r	.	16.b/LL	.	16.bb\LL	.
!	!	!	!	!	!	!	!	!	!	!	!	!	!LO:N:vis=16	!	!LO:SIC:s=32ff#	!
.	.	.	.	32f#/JJk	.	.	.	.	.	.	.	.	32f#/JJk	.	32ff#\JJk	.
4G^<\	.	4d 4B^>/	.	4g/	4g\	.	.	.	.	.	.	.	4g/	.	4gg\	.
*	*	*	*	*v	*v	*	*	*	*	*	*	*	*	*	*	*
=:|!	=:|!	=:|!	=:|!	=:|!	=:|!	=:|!	=:|!	=:|!	=:|!	=:|!	=:|!	=:|!	=:|!	=:|!	=:|!
*-	*-	*-	*-	*-	*-	*-	*-	*-	*-	*-	*-	*-	*-	*-	*-
!!!system-decoration: [(s1,s2,s3)][(s4,s5)][(s6,s7,s8)]
!!!ENC:Kamil Watkowski
!!!END:2020-11-09
!!!ENC: Kamil Watkowski
!!!END: 2021-10-29
!!!RDF**kern: > = above
!!!RDF**kern: < = below
